src/view/frontend/web/svg/heroicons/outline/trash.svg

<svg  viewBox="0 0 24 24" fill="none" stroke="currentColor" xmlns="http://www.w3.org/2000/svg">
<path d="M19 7L18.1327 19.1425C18.0579 20.1891 17.187 21 16.1378 21H7.86224C6.81296 21 5.94208 20.1891 5.86732 19.1425L5 7M10 11V17M14 11V17M15 7V4C15 3.44772 14.5523 3 14 3H10C9.44772 3 9 3.44772 9 4V7M4 7H20"  stroke-width="2" stroke-linecap="round" stroke-linejoin="round"/>
</svg>

<svg xmlns="http://www.w3.org/2000/svg" fill="none" viewBox="0 0 24 24" stroke="currentColor">
  <path stroke-linecap="round" stroke-linejoin="round" stroke-width="2" d="M19 7l-.867 12.142A2 2 0 0116.138 21H7.862a2 2 0 01-1.995-1.858L5 7m5 4v6m4-6v6m1-10V4a1 1 0 00-1-1h-4a1 1 0 00-1 1v3M4 7h16"/>
</svg>
